public/themes/EC/images/shield.svg

<svg xmlns="http://www.w3.org/2000/svg" height="512pt" version="1.1" viewBox="-38 0 512 512.00142" width="512pt">
<g id="surface1">
<path d="M 435.488281 138.917969 L 435.472656 138.519531 C 435.25 133.601562 435.101562 128.398438 435.011719 122.609375 C 434.59375 94.378906 412.152344 71.027344 383.917969 69.449219 C 325.050781 66.164062 279.511719 46.96875 240.601562 9.042969 L 240.269531 8.726562 C 227.578125 -2.910156 208.433594 -2.910156 195.738281 8.726562 L 195.40625 9.042969 C 156.496094 46.96875 110.957031 66.164062 52.089844 69.453125 C 23.859375 71.027344 1.414062 94.378906 0.996094 122.613281 C 0.910156 128.363281 0.757812 133.566406 0.535156 138.519531 L 0.511719 139.445312 C -0.632812 199.472656 -2.054688 274.179688 22.9375 341.988281 C 36.679688 379.277344 57.492188 411.691406 84.792969 438.335938 C 115.886719 468.679688 156.613281 492.769531 205.839844 509.933594 C 207.441406 510.492188 209.105469 510.945312 210.800781 511.285156 C 213.191406 511.761719 215.597656 512 218.003906 512 C 220.410156 512 222.820312 511.761719 225.207031 511.285156 C 226.902344 510.945312 228.578125 510.488281 230.1875 509.925781 C 279.355469 492.730469 320.039062 468.628906 351.105469 438.289062 C 378.394531 411.636719 399.207031 379.214844 412.960938 341.917969 C 438.046875 273.90625 436.628906 199.058594 435.488281 138.917969 Z M 384.773438 331.523438 C 358.414062 402.992188 304.605469 452.074219 220.273438 481.566406 C 219.972656 481.667969 219.652344 481.757812 219.320312 481.824219 C 218.449219 481.996094 217.5625 481.996094 216.679688 481.820312 C 216.351562 481.753906 216.03125 481.667969 215.734375 481.566406 C 131.3125 452.128906 77.46875 403.074219 51.128906 331.601562 C 28.09375 269.097656 29.398438 200.519531 30.550781 140.019531 L 30.558594 139.683594 C 30.792969 134.484375 30.949219 129.039062 31.035156 123.054688 C 31.222656 110.519531 41.207031 100.148438 53.765625 99.449219 C 87.078125 97.589844 116.34375 91.152344 143.234375 79.769531 C 170.089844 68.402344 193.941406 52.378906 216.144531 30.785156 C 217.273438 29.832031 218.738281 29.828125 219.863281 30.785156 C 242.070312 52.378906 265.921875 68.402344 292.773438 79.769531 C 319.664062 91.152344 348.929688 97.589844 382.246094 99.449219 C 394.804688 100.148438 404.789062 110.519531 404.972656 123.058594 C 405.0625 129.074219 405.21875 134.519531 405.453125 139.683594 C 406.601562 200.253906 407.875 268.886719 384.773438 331.523438 Z M 384.773438 331.523438 " style=" stroke:none;fill-rule:nonzero;fill:rgb(0%,0%,0%);fill-opacity:1;" />
<path d="M 217.996094 128.410156 C 147.636719 128.410156 90.398438 185.652344 90.398438 256.007812 C 90.398438 326.367188 147.636719 383.609375 217.996094 383.609375 C 288.351562 383.609375 345.59375 326.367188 345.59375 256.007812 C 345.59375 185.652344 288.351562 128.410156 217.996094 128.410156 Z M 217.996094 353.5625 C 164.203125 353.5625 120.441406 309.800781 120.441406 256.007812 C 120.441406 202.214844 164.203125 158.453125 217.996094 158.453125 C 271.785156 158.453125 315.546875 202.214844 315.546875 256.007812 C 315.546875 309.800781 271.785156 353.5625 217.996094 353.5625 Z M 217.996094 353.5625 " style=" stroke:none;fill-rule:nonzero;fill:rgb(0%,0%,0%);fill-opacity:1;" />
<path d="M 254.667969 216.394531 L 195.402344 275.660156 L 179.316406 259.574219 C 173.449219 253.707031 163.9375 253.707031 158.070312 259.574219 C 152.207031 265.441406 152.207031 274.953125 158.070312 280.816406 L 184.78125 307.527344 C 187.714844 310.460938 191.558594 311.925781 195.402344 311.925781 C 199.246094 311.925781 203.089844 310.460938 206.023438 307.527344 L 275.914062 237.636719 C 281.777344 231.769531 281.777344 222.257812 275.914062 216.394531 C 270.046875 210.523438 260.535156 210.523438 254.667969 216.394531 Z M 254.667969 216.394531 " style=" stroke:none;fill-rule:nonzero;fill:rgb(0%,0%,0%);fill-opacity:1;" />
</g>
</svg>

<svg xmlns="http://www.w3.org/2000/svg" height="512pt" viewBox="-38 0 512 512.00142" width="512pt"><path d="M435.488 138.918l-.015-.398a533.678 533.678 0 0 1-.461-15.91c-.418-28.231-22.86-51.583-51.094-53.16-58.867-3.286-104.406-22.481-143.316-60.407l-.332-.316c-12.692-11.637-31.836-11.637-44.532 0l-.332.316c-38.91 37.926-84.449 57.121-143.316 60.41C23.86 71.027 1.414 94.38.996 122.613a527.685 527.685 0 0 1-.46 15.907l-.024.925C-.633 199.473-2.055 274.18 22.937 341.988c13.743 37.29 34.555 69.703 61.856 96.348 31.094 30.344 71.82 54.434 121.047 71.598a37.432 37.432 0 0 0 4.96 1.351c2.391.477 4.798.715 7.204.715 2.406 0 4.816-.238 7.203-.715a37.463 37.463 0 0 0 4.98-1.36c49.168-17.195 89.852-41.296 120.918-71.636 27.29-26.652 48.102-59.074 61.856-96.371 25.086-68.012 23.668-142.86 22.527-203zm-50.715 192.605c-26.359 71.47-80.168 120.551-164.5 150.043-.3.102-.62.192-.953.258a6.751 6.751 0 0 1-2.64-.004 7.599 7.599 0 0 1-.946-.254C131.312 452.13 77.47 403.074 51.13 331.602 28.094 269.098 29.399 200.52 30.55 140.02l.008-.336c.234-5.2.39-10.645.476-16.63.188-12.534 10.172-22.906 22.73-23.605 33.313-1.86 62.579-8.297 89.47-19.68 26.855-11.367 50.706-27.39 72.91-48.984 1.128-.953 2.593-.957 3.718 0 22.207 21.594 46.059 37.617 72.91 48.985 26.891 11.382 56.157 17.82 89.473 19.68 12.559.698 22.543 11.07 22.727 23.609.09 6.015.246 11.46.48 16.625 1.149 60.57 2.422 129.203-20.68 191.84zm0 0"/><path d="M217.996 128.41c-70.36 0-127.598 57.242-127.598 127.598 0 70.36 57.239 127.601 127.598 127.601 70.356 0 127.598-57.242 127.598-127.601 0-70.356-57.242-127.598-127.598-127.598zm0 225.153c-53.793 0-97.555-43.762-97.555-97.555 0-53.793 43.762-97.555 97.555-97.555 53.79 0 97.55 43.762 97.55 97.555 0 53.793-43.76 97.555-97.55 97.555zm0 0"/><path d="M254.668 216.395l-59.266 59.265-16.086-16.086c-5.867-5.867-15.379-5.867-21.246 0-5.863 5.867-5.863 15.38 0 21.242l26.711 26.711a14.971 14.971 0 0 0 10.621 4.399c3.844 0 7.688-1.465 10.621-4.399l69.891-69.89c5.863-5.867 5.863-15.38 0-21.242-5.867-5.872-15.379-5.872-21.246 0zm0 0"/></svg>
